fs/rename_20_regular.svg

<svg viewBox="0 0 20 20" fill="none" xmlns="http://www.w3.org/2000/svg" height="1em" width="1em">
  <path d="M8.5 2C8.22386 2 8 2.22386 8 2.5C8 2.77614 8.22386 3 8.5 3H9.5V17H8.5C8.22386 17 8 17.2239 8 17.5C8 17.7761 8.22386 18 8.5 18H11.5C11.7761 18 12 17.7761 12 17.5C12 17.2239 11.7761 17 11.5 17H10.5V3H11.5C11.7761 3 12 2.77614 12 2.5C12 2.22386 11.7761 2 11.5 2H8.5ZM4.5 4H8.5V5H4.5C3.67157 5 3 5.67157 3 6.5V13.5C3 14.3284 3.67157 15 4.5 15H8.5V16H4.5C3.11929 16 2 14.8807 2 13.5V6.5C2 5.11929 3.11929 4 4.5 4ZM15.5 15H11.5V16H15.5C16.8807 16 18 14.8807 18 13.5V6.5C18 5.11929 16.8807 4 15.5 4H11.5V5H15.5C16.3284 5 17 5.67157 17 6.5V13.5C17 14.3284 16.3284 15 15.5 15Z" fill="#212121"/>
</svg>

<svg viewBox="0 0 20 20" fill="none" xmlns="http://www.w3.org/2000/svg" height="1em" width="1em">
  <path d="M8.5 2a.5.5 0 0 0 0 1h1v14h-1a.5.5 0 0 0 0 1h3a.5.5 0 0 0 0-1h-1V3h1a.5.5 0 0 0 0-1h-3Zm-4 2h4v1h-4A1.5 1.5 0 0 0 3 6.5v7A1.5 1.5 0 0 0 4.5 15h4v1h-4A2.5 2.5 0 0 1 2 13.5v-7A2.5 2.5 0 0 1 4.5 4Zm11 11h-4v1h4a2.5 2.5 0 0 0 2.5-2.5v-7A2.5 2.5 0 0 0 15.5 4h-4v1h4A1.5 1.5 0 0 1 17 6.5v7a1.5 1.5 0 0 1-1.5 1.5Z" fill="#212121"/>
</svg>
